img/arrow.svg

<svg
   width="16"
   height="16"
   viewBox="0 0 16 16"
   fill="none"
   version="1.1"
   xmlns="http://www.w3.org/2000/svg"
   xmlns:svg="http://www.w3.org/2000/svg">
  <path d="m 14.8801,9.1199009 -6.0886999,-6.08871 3.7e-4,12.1770101 -0.79177,0.7918 -0.79166,-0.7917 -2e-5,-12.1766501 -6.08832,6.08833 L 7.3567499e-8,8.0000009 6.8801101,1.1198909 7.2082301,0.79176987 8.0000001,7.35675e-8 9.1199901,1.1199909 l 6.8800089,6.88001 z" fill="white"/>
</svg>

<svg width="16" height="16" fill="none" xmlns="http://www.w3.org/2000/svg"><path d="M14.88 9.12 8.791 3.03v12.177L8 16l-.792-.792V3.032L1.12 9.12 0 8l6.88-6.88.328-.328L8 0l1.12 1.12L16 8z" fill="#fff"/></svg>
